X:522
T:Washington
R:Hornpipe
O:Ireland
B:Kerr's First p46
S:Kerr's First p46
Z:Transcription, chords:Mike Long
M:4/4
L:1/8
K:Bb
"Bb"Bcde fBAB|"Eb"gBaB "Bb"bBAB|"Bb"GBFB EBDB|"F"GecA "Eb"BAGF|\
"Bb"Bcde fBAB|"Eb"gBaB "Bb"bBAB|
"Bb"GBFB EBDB|"F"GecA "Bb"B2z2:|\
|:"Bb"fBAB "Eb"gBAB|"Eb"gfga "Bb"bagf|"Bb"bagf "Eb"edcB|
"Eb"cecA "F"BAGF|\
"Bb"Bcde fBAB|"Eb"gBaB "Bb"bBAB|"Bb"GBFB EBDB|"F"GecA "Bb"B2z2:|
